svg/fluentui-system-icons/ic_fluent_align_left_20_regular.svg

<svg width="20" height="20" viewBox="0 0 20 20" fill="none" xmlns="http://www.w3.org/2000/svg">
<path d="M3.5 2C3.22386 2 3 2.22386 3 2.5V17.5C3 17.7761 3.22386 18 3.5 18C3.77614 18 4 17.7761 4 17.5V2.5C4 2.22386 3.77614 2 3.5 2ZM7 11C5.89543 11 5 11.8954 5 13L5 14C5 15.1046 5.89543 16 7 16H12C13.1046 16 14 15.1046 14 14V13C14 11.8954 13.1046 11 12 11H7ZM6 13C6 12.4477 6.44772 12 7 12H12C12.5523 12 13 12.4477 13 13V14C13 14.5523 12.5523 15 12 15H7C6.44772 15 6 14.5523 6 14L6 13ZM5 6C5 4.89543 5.89543 4 7 4L15 4C16.1046 4 17 4.89543 17 6V7C17 8.10457 16.1046 9 15 9L7 9C5.89543 9 5 8.10457 5 7L5 6ZM7 5C6.44772 5 6 5.44772 6 6L6 7C6 7.55228 6.44772 8 7 8L15 8C15.5523 8 16 7.55228 16 7V6C16 5.44771 15.5523 5 15 5L7 5Z" fill="#212121"/>
</svg>

<svg xmlns="http://www.w3.org/2000/svg" width="20" height="20"><path d="M3.5 2a.5.5 0 0 0-.5.5v15a.5.5 0 0 0 1 0v-15a.5.5 0 0 0-.5-.5ZM7 11a2 2 0 0 0-2 2v1a2 2 0 0 0 2 2h5a2 2 0 0 0 2-2v-1a2 2 0 0 0-2-2H7Zm-1 2a1 1 0 0 1 1-1h5a1 1 0 0 1 1 1v1a1 1 0 0 1-1 1H7a1 1 0 0 1-1-1v-1ZM5 6a2 2 0 0 1 2-2h8a2 2 0 0 1 2 2v1a2 2 0 0 1-2 2H7a2 2 0 0 1-2-2V6Zm2-1a1 1 0 0 0-1 1v1a1 1 0 0 0 1 1h8a1 1 0 0 0 1-1V6a1 1 0 0 0-1-1H7Z"/></svg>
